X: 18148
T: Humours Of Clonmult, The
R: slide
M: 12/8
K: Dmajor
|:A|Add d2e ~f3 fef|~g3 fed ~B3 B2A|Bee e2f edc a2g|fed cBc d3 d2:|
|:e|faa a2f d3 def|e2A d2e f2e d2e|faa a2f d3 def|e2d f2e d3 d2:|

